X:1
T:There Is a Paradise of Rest
T:There Is a Paradise of Rest
T:Ira David Sankey
T:Frances Jane (Fanny) Crosby, 1890
T:Public Domain Courtesy of the Cyber Hymnal™
T:Public Domain Courtesy of the Cyber Hymnal™
C:Ira David Sankey
Z:Public Domain
Z:Courtesy of the Cyber Hymnal™
%%score ( 1 2 ) ( 3 4 )
L:1/8
Q:1/4=110
M:4/4
K:Eb
V:1 treble 
V:2 treble 
V:3 bass 
V:4 bass 
V:1
 (EG) | [EB]3 [E=A] [Ec][EB][EA][EB] | [EG]6 [EB]2 | [Ec]2 [Ee]2 [Ed]2 [Ec]2 | [EB]6 (EG) | %5
w: 1.~There *|is a par- a- dise of|rest On|yon- der tran- quil|shore, Be- *|
w: 2.~There *|is a ci- ty crowned with|light, Its|joy no tongue can|tell; For *|
w: 3.~There *|is a crown laid up on|high That|Christ the Lord will|give To *|
w: 4.~Oh, *|then be faith- ful un- to|death, Press|on the heaven- ly|way, That *|
 [GB]3 [^F=A] [_Ac][GB][F=A][GB] | [EG]2 [EA]2 [EB]2 [Ec]2 | [EB]3 E [EG]2 [DF]2 | E6 || %9
w: yond the sha- dow and the|gloom of night, Where|toil and tears are|o’er.|
w: they who en- ter shall be-|hold the King, And|in His pre- sence|dwell.|
w: those who pa- tient- ly His|com- ing wait, And|for His glo- ry|live.|
w: we may en- ter through the|gates of life To|realms of end- less|day.|
"^Refrain" e>d | (z2 [Ec])d>c x3 | (z2 E>)[EF] x15/2 | [EG]>[EG] [EG]>[EG] [Ec][EB] [EG]>E | %13
w: ||||
w: ||||
w: Meet me|* there, oh,|* meet|me there, At the dawn- ing of that|
w: ||||
 [DF]6 G>B | (z2 [Ee])d c>e x2 | z2 E>[EF] x15/2 | [EG]>[EG] [EG]>[EG] [GB][EG] [DF]>E | E6 |] %18
w: |||||
w: |||||
w: morn- ing bright|* and fair; Meet|* me|there, oh, meet me there, In the land|be-|
w: |||||
V:2
 E2 | x8 | x8 | x8 | x6 E2 | x8 | x8 | x3 E x4 | E6 || x2 | c4- (E3/2 E/ e) x | B6 (E>E E2) E3/2 | %12
 x15/2 E/ | x8 | e4- E3/2 E/ x2 | B6 (E>E E2) E3/2 | x15/2 E/ | E6 |] %18
V:3
 (G,B,) | [E,G,]3 [E,^F,] [E,A,][E,G,][E,F,][E,G,] | [E,B,]6 [E,G,]2 | %3
w: ~ *|~ ~ ~ ~ ~ ~|~ ~|
 A,2 [A,C]2 [A,,B,]2 [C,A,]2 | [E,G,]6 (G,B,) | [E,E]3 [E,E] [E,E][E,E][E,C][E,E] | %6
w: ~ ~ ~ ~|~ ~ *|~ ~ ~ ~ ~ ~|
 [E,B,]2 [C,A,]2 [B,,G,]2 [A,,F,]2 | [G,,B,]3 [C,G,] [B,,B,]2 [B,,A,]2 | [E,G,]6 || z2 | %10
w: ~ ~ ~ ~|~ ~ ~ ~|~||
 z2 [A,,A,]>[A,,A,] [A,,A,] z3 | z2 [E,G,]>[E,G,] [E,G,]2 [E,G,]>[E,A,] x7/2 | %12
w: meet me there,|meet me there ~ ~|
 [E,B,]>[E,B,] [E,B,]>[E,B,] [E,A,][E,G,] [E,B,]>[G,,B,] | [B,,B,]6 z2 | %14
w: ~ ~ ~ ~ ~ ~ ~ ~|~|
 z2 [E,G,]>[E,G,] [E,G,] z3 | z2 [E,G,]>[E,G,] [E,G,]2 [G,,B,]>[A,,C] x7/2 | %16
w: meet me there,|meet me there * *|
 [B,,B,]>[B,,B,] [B,,B,]>[B,,B,] [B,,E][B,,B,] [B,,A,]>[E,G,] | [E,G,]6 |] %18
w: ||
V:4
 E,2 | x8 | x8 | A,2 x6 | x6 E,2 | x8 | x8 | x8 | x6 || x2 | x8 | x23/2 | x8 | x8 | x8 | x23/2 | %16
 x8 | x6 |] %18

